P3
80 80
255
1 1 2 1 1 2 1 1 2 1 1 2 1 1 2 1 1 2 1 1 2 1 1 2 
1 1 2 1 1 2 1 1 2 1 1 2 1 1 2 1 1 2 1 1 2 1 1 2 
1 1 2 1 1 2 1 1 2 1 1 2 1 1 2 1 1 2 1 1 2 1 1 2 
1 1 2 1 1 2 1 1 2 1 1 2 1 1 2 1 1 2 1 1 2 1 1 2 
1 1 2 1 1 2 1 1 2 1 1 2 1 1 2 1 1 2 14 14 17 14 14 17 
14 14 17 1 1 2 1 1 2 1 1 2 1 1 2 1 1 2 1 1 2 1 1 2 
1 1 2 1 1 2 1 1 2 1 1 2 1 1 2 1 1 2 1 1 2 1 1 2 
1 1 2 1 1 2 1 1 2 1 1 2 1 1 2 1 1 2 1 1 2 1 1 2 
1 1 2 1 1 2 1 1 2 1 1 2 1 1 2 1 1 2 1 1 2 1 1 2 
1 1 2 1 1 2 1 1 2 1 1 2 1 1 2 1 1 2 1 1 2 1 1 2 

1 1 2 1 1 2 1 1 2 1 1 2 1 1 2 1 1 2 1 1 2 1 1 2 
1 1 2 1 1 2 1 1 2 1 1 2 1 1 2 1 1 2 1 1 2 1 1 2 
1 1 2 1 1 2 1 1 2 1 1 2 1 1 2 1 1 2 1 1 2 1 1 2 
1 1 2 1 1 2 1 1 2 1 1 2 1 1 2 1 1 2 1 1 2 1 1 2 
1 1 2 1 1 2 14 14 17 14 14 17 22 22 23 22 22 23 22 22 23 39 39 40 
22 22 23 22 22 23 22 22 23 17 15 18 14 14 17 14 14 17 14 14 17 1 1 2 
1 1 2 1 1 2 1 1 2 1 1 2 1 1 2 1 1 2 1 1 2 1 1 2 
1 1 2 1 1 2 1 1 2 1 1 2 1 1 2 1 1 2 1 1 2 1 1 2 
1 1 2 1 1 2 1 1 2 1 1 2 1 1 2 1 1 2 1 1 2 1 1 2 
1 1 2 1 1 2 1 1 2 1 1 2 1 1 2 1 1 2 1 1 2 1 1 2 

1 1 2 1 1 2 1 1 2 1 1 2 1 1 2 1 1 2 1 1 2 1 1 2 
1 1 2 1 1 2 1 1 2 1 1 2 1 1 2 1 1 2 1 1 2 1 1 2 
1 1 2 1 1 2 1 1 2 1 1 2 1 1 2 1 1 2 1 1 2 1 1 2 
1 1 2 1 1 2 1 1 2 1 1 2 1 1 2 1 1 2 1 1 2 1 1 2 
1 1 2 14 14 17 22 22 23 39 39 40 55 55 55 72 72 72 82 78 75 82 78 75 
82 78 75 72 72 72 72 72 72 55 55 55 39 39 40 22 22 23 17 15 18 14 14 17 
1 1 2 1 1 2 1 1 2 1 1 2 1 1 2 1 1 2 1 1 2 1 1 2 
1 1 2 1 1 2 1 1 2 1 1 2 1 1 2 1 1 2 1 1 2 1 1 2 
1 1 2 1 1 2 1 1 2 1 1 2 1 1 2 1 1 2 1 1 2 1 1 2 
1 1 2 1 1 2 1 1 2 1 1 2 1 1 2 1 1 2 1 1 2 1 1 2 

1 1 2 1 1 2 1 1 2 1 1 2 1 1 2 1 1 2 1 1 2 1 1 2 
1 1 2 1 1 2 1 1 2 1 1 2 1 1 2 1 1 2 1 1 2 1 1 2 
1 1 2 1 1 2 1 1 2 1 1 2 1 1 2 1 1 2 1 1 2 1 1 2 
1 1 2 1 1 2 1 1 2 1 1 2 1 1 2 1 1 2 1 1 2 14 14 17 
22 22 23 39 39 40 72 72 72 86 86 87 72 72 72 39 39 40 39 39 40 22 22 23 
22 22 23 39 39 40 55 55 55 72 72 72 86 86 87 72 72 72 45 49 46 22 22 23 
14 14 17 1 1 2 1 1 2 1 1 2 1 1 2 1 1 2 1 1 2 1 1 2 
1 1 2 1 1 2 1 1 2 1 1 2 1 1 2 1 1 2 1 1 2 1 1 2 
1 1 2 1 1 2 1 1 2 1 1 2 1 1 2 1 1 2 1 1 2 1 1 2 
1 1 2 1 1 2 1 1 2 1 1 2 1 1 2 1 1 2 1 1 2 1 1 2 

1 1 2 1 1 2 1 1 2 1 1 2 1 1 2 1 1 2 1 1 2 1 1 2 
1 1 2 1 1 2 1 1 2 1 1 2 1 1 2 1 1 2 1 1 2 1 1 2 
1 1 2 1 1 2 1 1 2 1 1 2 1 1 2 1 1 2 1 1 2 1 1 2 
1 1 2 1 1 2 1 1 2 1 1 2 1 1 2 1 1 2 14 14 17 22 22 23 
49 47 50 82 77 85 55 55 55 1 1 2 1 1 2 1 1 2 1 1 2 1 1 2 
1 1 2 1 1 2 1 1 2 1 1 2 1 1 2 55 55 55 86 86 87 72 72 72 
39 39 40 17 15 18 1 1 2 1 1 2 1 1 2 1 1 2 1 1 2 1 1 2 
1 1 2 1 1 2 1 1 2 1 1 2 1 1 2 1 1 2 1 1 2 1 1 2 
1 1 2 1 1 2 1 1 2 1 1 2 1 1 2 1 1 2 1 1 2 1 1 2 
1 1 2 1 1 2 1 1 2 1 1 2 1 1 2 1 1 2 1 1 2 1 1 2 

1 1 2 1 1 2 1 1 2 1 1 2 1 1 2 1 1 2 1 1 2 1 1 2 
1 1 2 1 1 2 1 1 2 1 1 2 1 1 2 1 1 2 1 1 2 1 1 2 
1 1 2 1 1 2 1 1 2 1 1 2 1 1 2 1 1 2 1 1 2 1 1 2 
1 1 2 1 1 2 1 1 2 1 1 2 1 1 2 1 1 2 22 22 23 49 47 50 
76 77 82 39 39 40 1 1 2 1 1 2 1 1 2 1 1 2 1 1 2 1 1 2 
1 1 2 1 1 2 1 1 2 1 1 2 1 1 2 1 1 2 1 1 2 72 72 72 
82 78 75 45 49 46 22 22 23 1 1 2 1 1 2 1 1 2 1 1 2 1 1 2 
1 1 2 1 1 2 1 1 2 1 1 2 1 1 2 1 1 2 1 1 2 1 1 2 
1 1 2 1 1 2 1 1 2 1 1 2 1 1 2 1 1 2 1 1 2 1 1 2 
1 1 2 1 1 2 1 1 2 1 1 2 1 1 2 1 1 2 1 1 2 1 1 2 

1 1 2 1 1 2 1 1 2 1 1 2 1 1 2 1 1 2 1 1 2 1 1 2 
1 1 2 1 1 2 1 1 2 1 1 2 1 1 2 1 1 2 1 1 2 1 1 2 
1 1 2 1 1 2 1 1 2 1 1 2 1 1 2 1 1 2 1 1 2 1 1 2 
1 1 2 1 1 2 1 1 2 1 1 2 1 1 2 17 15 18 39 39 40 78 83 78 
30 30 33 1 1 2 1 1 2 1 1 2 1 1 2 1 1 2 1 1 2 1 1 2 
1 1 2 1 1 2 1 1 2 14 14 17 45 44 50 39 39 40 1 1 2 1 1 2 
39 39 40 82 78 75 39 39 40 17 15 18 1 1 2 1 1 2 1 1 2 1 1 2 
1 1 2 1 1 2 1 1 2 1 1 2 1 1 2 1 1 2 1 1 2 1 1 2 
1 1 2 1 1 2 1 1 2 1 1 2 1 1 2 1 1 2 1 1 2 1 1 2 
1 1 2 1 1 2 1 1 2 1 1 2 1 1 2 1 1 2 1 1 2 1 1 2 

1 1 2 1 1 2 1 1 2 1 1 2 1 1 2 1 1 2 1 1 2 1 1 2 
1 1 2 1 1 2 1 1 2 1 1 2 1 1 2 1 1 2 1 1 2 1 1 2 
1 1 2 1 1 2 1 1 2 1 1 2 1 1 2 1 1 2 1 1 2 1 1 2 
1 1 2 1 1 2 1 1 2 1 1 2 14 14 17 22 22 23 72 72 72 55 55 55 
1 1 2 1 1 2 1 1 2 1 1 2 1 1 2 1 1 2 1 1 2 1 1 2 
1 1 2 1 1 2 1 1 2 22 22 23 86 86 87 104 104 103 45 49 46 14 14 17 
1 1 2 55 55 55 72 72 72 39 39 40 14 14 17 1 1 2 1 1 2 1 1 2 
1 1 2 1 1 2 1 1 2 1 1 2 1 1 2 1 1 2 1 1 2 1 1 2 
1 1 2 1 1 2 1 1 2 1 1 2 1 1 2 1 1 2 1 1 2 1 1 2 
1 1 2 1 1 2 1 1 2 1 1 2 1 1 2 1 1 2 1 1 2 1 1 2 

1 1 2 1 1 2 1 1 2 1 1 2 1 1 2 1 1 2 1 1 2 1 1 2 
1 1 2 1 1 2 1 1 2 1 1 2 1 1 2 1 1 2 1 1 2 1 1 2 
1 1 2 1 1 2 1 1 2 1 1 2 1 1 2 1 1 2 1 1 2 1 1 2 
1 1 2 1 1 2 1 1 2 1 1 2 14 14 17 45 49 46 86 86 87 14 14 17 
1 1 2 1 1 2 1 1 2 1 1 2 1 1 2 1 1 2 1 1 2 1 1 2 
1 1 2 1 1 2 1 1 2 30 30 33 94 94 97 94 94 97 55 55 55 22 22 23 
1 1 2 1 1 2 76 77 82 55 55 55 22 22 23 1 1 2 1 1 2 1 1 2 
1 1 2 1 1 2 1 1 2 1 1 2 1 1 2 1 1 2 1 1 2 1 1 2 
1 1 2 1 1 2 1 1 2 1 1 2 1 1 2 1 1 2 1 1 2 1 1 2 
1 1 2 1 1 2 1 1 2 1 1 2 1 1 2 1 1 2 1 1 2 1 1 2 

1 1 2 1 1 2 1 1 2 1 1 2 1 1 2 1 1 2 1 1 2 1 1 2 
1 1 2 1 1 2 1 1 2 1 1 2 1 1 2 1 1 2 1 1 2 1 1 2 
1 1 2 1 1 2 1 1 2 1 1 2 1 1 2 1 1 2 1 1 2 1 1 2 
1 1 2 1 1 2 1 1 2 1 1 2 22 22 23 55 55 55 55 55 55 1 1 2 
1 1 2 1 1 2 1 1 2 1 1 2 1 1 2 1 1 2 1 1 2 1 1 2 
1 1 2 1 1 2 1 1 2 22 22 23 55 55 55 39 39 40 22 22 23 14 14 17 
1 1 2 1 1 2 39 39 40 82 77 85 39 39 40 17 15 18 1 1 2 1 1 2 
1 1 2 1 1 2 1 1 2 1 1 2 1 1 2 1 1 2 1 1 2 1 1 2 
1 1 2 1 1 2 1 1 2 1 1 2 1 1 2 1 1 2 1 1 2 1 1 2 
1 1 2 1 1 2 1 1 2 1 1 2 1 1 2 1 1 2 1 1 2 1 1 2 

1 1 2 1 1 2 1 1 2 1 1 2 1 1 2 1 1 2 1 1 2 1 1 2 
1 1 2 1 1 2 1 1 2 1 1 2 1 1 2 1 1 2 1 1 2 1 1 2 
1 1 2 1 1 2 1 1 2 1 1 2 1 1 2 1 1 2 1 1 2 1 1 2 
1 1 2 1 1 2 1 1 2 14 14 17 22 22 23 82 78 75 39 39 40 1 1 2 
1 1 2 1 1 2 1 1 2 1 1 2 1 1 2 1 1 2 1 1 2 1 1 2 
1 1 2 1 1 2 1 1 2 14 14 17 14 14 17 1 1 2 1 1 2 1 1 2 
1 1 2 1 1 2 1 1 2 76 77 82 49 47 50 22 22 23 1 1 2 1 1 2 
1 1 2 1 1 2 1 1 2 1 1 2 1 1 2 1 1 2 1 1 2 1 1 2 
1 1 2 1 1 2 1 1 2 1 1 2 1 1 2 1 1 2 1 1 2 1 1 2 
1 1 2 1 1 2 1 1 2 1 1 2 1 1 2 1 1 2 1 1 2 1 1 2 

1 1 2 1 1 2 1 1 2 1 1 2 1 1 2 1 1 2 1 1 2 1 1 2 
1 1 2 1 1 2 1 1 2 1 1 2 1 1 2 1 1 2 1 1 2 1 1 2 
1 1 2 1 1 2 1 1 2 1 1 2 1 1 2 1 1 2 1 1 2 1 1 2 
1 1 2 1 1 2 1 1 2 14 14 17 39 39 40 86 86 87 14 14 17 1 1 2 
1 1 2 1 1 2 1 1 2 1 1 2 1 1 2 1 1 2 1 1 2 1 1 2 
1 1 2 1 1 2 1 1 2 1 1 2 1 1 2 1 1 2 1 1 2 1 1 2 
1 1 2 1 1 2 1 1 2 55 55 55 72 72 72 22 22 23 14 14 17 1 1 2 
1 1 2 1 1 2 1 1 2 1 1 2 1 1 2 1 1 2 1 1 2 1 1 2 
1 1 2 1 1 2 1 1 2 1 1 2 1 1 2 1 1 2 1 1 2 1 1 2 
1 1 2 1 1 2 1 1 2 1 1 2 1 1 2 1 1 2 1 1 2 1 1 2 

1 1 2 1 1 2 1 1 2 1 1 2 1 1 2 1 1 2 1 1 2 1 1 2 
1 1 2 1 1 2 1 1 2 1 1 2 1 1 2 1 1 2 1 1 2 1 1 2 
1 1 2 1 1 2 1 1 2 1 1 2 1 1 2 1 1 2 1 1 2 1 1 2 
1 1 2 1 1 2 1 1 2 14 14 17 39 39 40 78 83 78 1 1 2 1 1 2 
1 1 2 14 14 17 14 14 17 1 1 2 1 1 2 1 1 2 1 1 2 1 1 2 
1 1 2 1 1 2 1 1 2 1 1 2 14 14 17 14 14 17 1 1 2 1 1 2 
1 1 2 1 1 2 1 1 2 22 22 23 82 77 85 39 39 40 14 14 17 1 1 2 
1 1 2 1 1 2 1 1 2 1 1 2 1 1 2 1 1 2 1 1 2 1 1 2 
1 1 2 1 1 2 1 1 2 1 1 2 1 1 2 1 1 2 1 1 2 1 1 2 
1 1 2 1 1 2 1 1 2 1 1 2 1 1 2 1 1 2 1 1 2 1 1 2 

1 1 2 1 1 2 1 1 2 1 1 2 1 1 2 1 1 2 1 1 2 1 1 2 
1 1 2 1 1 2 1 1 2 1 1 2 1 1 2 1 1 2 1 1 2 1 1 2 
1 1 2 1 1 2 1 1 2 1 1 2 1 1 2 1 1 2 1 1 2 1 1 2 
1 1 2 1 1 2 1 1 2 14 14 17 45 49 46 86 86 87 1 1 2 1 1 2 
14 14 17 14 14 17 22 22 23 39 39 40 1 1 2 1 1 2 1 1 2 1 1 2 
1 1 2 1 1 2 22 22 23 39 39 40 14 14 17 49 47 50 22 22 23 1 1 2 
1 1 2 1 1 2 1 1 2 14 14 17 86 86 87 39 39 40 17 15 18 1 1 2 
1 1 2 1 1 2 1 1 2 1 1 2 1 1 2 1 1 2 1 1 2 1 1 2 
1 1 2 1 1 2 1 1 2 1 1 2 1 1 2 1 1 2 1 1 2 1 1 2 
1 1 2 1 1 2 1 1 2 1 1 2 1 1 2 1 1 2 1 1 2 1 1 2 

1 1 2 1 1 2 1 1 2 1 1 2 1 1 2 1 1 2 1 1 2 1 1 2 
1 1 2 1 1 2 1 1 2 1 1 2 1 1 2 1 1 2 1 1 2 1 1 2 
1 1 2 1 1 2 1 1 2 1 1 2 1 1 2 1 1 2 1 1 2 1 1 2 
1 1 2 1 1 2 1 1 2 14 14 17 45 49 46 86 86 87 1 1 2 1 1 2 
39 39 40 119 119 119 94 94 97 22 22 23 22 22 23 1 1 2 1 1 2 1 1 2 
17 15 18 86 86 87 143 144 139 169 169 169 152 152 152 39 39 40 22 22 23 1 1 2 
1 1 2 1 1 2 1 1 2 1 1 2 86 86 87 45 44 50 14 14 17 1 1 2 
1 1 2 1 1 2 1 1 2 1 1 2 1 1 2 1 1 2 1 1 2 1 1 2 
1 1 2 1 1 2 1 1 2 1 1 2 1 1 2 1 1 2 1 1 2 1 1 2 
1 1 2 1 1 2 1 1 2 1 1 2 1 1 2 1 1 2 1 1 2 1 1 2 

1 1 2 1 1 2 1 1 2 1 1 2 1 1 2 1 1 2 1 1 2 1 1 2 
1 1 2 1 1 2 1 1 2 1 1 2 1 1 2 1 1 2 1 1 2 1 1 2 
1 1 2 1 1 2 1 1 2 1 1 2 1 1 2 1 1 2 1 1 2 1 1 2 
1 1 2 1 1 2 1 1 2 14 14 17 45 49 46 86 86 87 1 1 2 14 14 17 
136 136 135 199 199 200 199 199 200 119 119 119 14 14 17 1 1 2 1 1 2 1 1 2 
104 104 103 186 187 186 206 208 207 216 216 216 216 216 216 136 136 135 17 15 18 1 1 2 
1 1 2 1 1 2 1 1 2 1 1 2 86 86 87 49 47 50 22 22 23 1 1 2 
1 1 2 1 1 2 1 1 2 1 1 2 1 1 2 1 1 2 1 1 2 1 1 2 
1 1 2 1 1 2 1 1 2 1 1 2 1 1 2 1 1 2 1 1 2 1 1 2 
1 1 2 1 1 2 1 1 2 1 1 2 1 1 2 1 1 2 1 1 2 1 1 2 

1 1 2 1 1 2 1 1 2 1 1 2 1 1 2 1 1 2 1 1 2 1 1 2 
1 1 2 1 1 2 1 1 2 1 1 2 1 1 2 1 1 2 1 1 2 1 1 2 
1 1 2 1 1 2 1 1 2 1 1 2 1 1 2 1 1 2 1 1 2 1 1 2 
1 1 2 1 1 2 1 1 2 14 14 17 45 49 46 78 83 78 1 1 2 55 55 55 
216 216 216 174 195 206 231 231 232 252 252 252 55 55 55 1 1 2 1 1 2 30 30 33 
206 208 207 252 252 252 176 174 173 119 119 119 227 225 218 231 231 232 76 77 82 1 1 2 
1 1 2 1 1 2 1 1 2 1 1 2 72 72 72 55 55 55 22 22 23 1 1 2 
1 1 2 1 1 2 1 1 2 1 1 2 1 1 2 1 1 2 1 1 2 1 1 2 
1 1 2 1 1 2 1 1 2 1 1 2 1 1 2 1 1 2 1 1 2 1 1 2 
1 1 2 1 1 2 1 1 2 1 1 2 1 1 2 1 1 2 1 1 2 1 1 2 

1 1 2 1 1 2 1 1 2 1 1 2 1 1 2 1 1 2 1 1 2 1 1 2 
1 1 2 1 1 2 1 1 2 1 1 2 1 1 2 1 1 2 1 1 2 1 1 2 
1 1 2 1 1 2 1 1 2 1 1 2 1 1 2 1 1 2 1 1 2 1 1 2 
1 1 2 1 1 2 1 1 2 14 14 17 45 49 46 78 83 78 1 1 2 104 104 103 
169 169 169 22 22 23 86 86 87 227 225 218 119 119 119 14 14 17 14 14 17 45 49 46 
231 231 232 190 192 191 1 1 2 72 72 72 86 86 87 231 231 232 160 158 161 1 1 2 
1 1 2 1 1 2 1 1 2 1 1 2 72 72 72 55 55 55 22 22 23 1 1 2 
1 1 2 1 1 2 1 1 2 1 1 2 1 1 2 1 1 2 1 1 2 1 1 2 
1 1 2 1 1 2 1 1 2 1 1 2 1 1 2 1 1 2 1 1 2 1 1 2 
1 1 2 1 1 2 1 1 2 1 1 2 1 1 2 1 1 2 1 1 2 1 1 2 

1 1 2 1 1 2 1 1 2 1 1 2 1 1 2 1 1 2 1 1 2 1 1 2 
1 1 2 1 1 2 1 1 2 1 1 2 1 1 2 1 1 2 1 1 2 1 1 2 
1 1 2 1 1 2 1 1 2 1 1 2 1 1 2 1 1 2 1 1 2 1 1 2 
1 1 2 1 1 2 1 1 2 14 14 17 39 39 40 86 86 87 1 1 2 119 119 119 
104 104 103 1 1 2 72 72 72 152 152 152 150 131 89 22 7 1 55 37 0 71 55 6 
216 216 216 104 104 103 1 1 2 13 17 19 45 49 46 190 192 191 199 199 200 1 1 2 
1 1 2 1 1 2 1 1 2 1 1 2 72 72 72 55 55 55 22 22 23 1 1 2 
1 1 2 1 1 2 1 1 2 1 1 2 1 1 2 1 1 2 1 1 2 1 1 2 
1 1 2 1 1 2 1 1 2 1 1 2 1 1 2 1 1 2 1 1 2 1 1 2 
1 1 2 1 1 2 1 1 2 1 1 2 1 1 2 1 1 2 1 1 2 1 1 2 

1 1 2 1 1 2 1 1 2 1 1 2 1 1 2 1 1 2 1 1 2 1 1 2 
1 1 2 1 1 2 1 1 2 1 1 2 1 1 2 1 1 2 1 1 2 1 1 2 
1 1 2 1 1 2 1 1 2 1 1 2 1 1 2 1 1 2 1 1 2 1 1 2 
1 1 2 1 1 2 1 1 2 14 14 17 39 39 40 86 86 87 14 14 17 104 104 103 
136 136 135 1 1 2 17 15 18 113 112 110 109 101 72 100 87 56 100 87 56 89 73 38 
169 169 169 104 104 103 1 1 2 1 1 2 1 1 2 199 199 200 199 199 200 1 1 2 
1 1 2 1 1 2 1 1 2 1 1 2 72 72 72 55 55 55 22 22 23 1 1 2 
1 1 2 1 1 2 1 1 2 1 1 2 1 1 2 1 1 2 1 1 2 1 1 2 
1 1 2 1 1 2 1 1 2 1 1 2 1 1 2 1 1 2 1 1 2 1 1 2 
1 1 2 1 1 2 1 1 2 1 1 2 1 1 2 1 1 2 1 1 2 1 1 2 

1 1 2 1 1 2 1 1 2 1 1 2 1 1 2 1 1 2 1 1 2 1 1 2 
1 1 2 1 1 2 1 1 2 1 1 2 1 1 2 1 1 2 1 1 2 1 1 2 
1 1 2 1 1 2 1 1 2 1 1 2 1 1 2 1 1 2 1 1 2 1 1 2 
1 1 2 1 1 2 1 1 2 1 1 2 39 39 40 86 86 87 14 14 17 55 55 55 
214 210 204 40 22 3 73 40 3 157 113 3 229 173 7 237 184 20 222 177 25 187 148 1 
222 177 25 187 148 1 53 29 0 22 7 1 78 66 44 255 252 215 136 136 135 1 1 2 
1 1 2 1 1 2 1 1 2 1 1 2 72 72 72 72 72 72 22 22 23 1 1 2 
1 1 2 1 1 2 1 1 2 1 1 2 1 1 2 1 1 2 1 1 2 1 1 2 
1 1 2 1 1 2 1 1 2 1 1 2 1 1 2 1 1 2 1 1 2 1 1 2 
1 1 2 1 1 2 1 1 2 1 1 2 1 1 2 1 1 2 1 1 2 1 1 2 

1 1 2 1 1 2 1 1 2 1 1 2 1 1 2 1 1 2 1 1 2 1 1 2 
1 1 2 1 1 2 1 1 2 1 1 2 1 1 2 1 1 2 1 1 2 1 1 2 
1 1 2 1 1 2 1 1 2 1 1 2 1 1 2 1 1 2 1 1 2 1 1 2 
1 1 2 1 1 2 1 1 2 14 14 17 39 39 40 86 86 87 14 14 17 14 14 17 
207 196 179 170 167 156 185 139 36 208 175 84 237 184 20 244 188 19 232 184 32 233 194 40 
243 203 50 243 203 50 209 183 111 166 146 60 207 196 179 207 196 179 39 39 40 1 1 2 
1 1 2 1 1 2 1 1 2 1 1 2 49 47 50 76 77 82 30 30 33 14 14 17 
1 1 2 1 1 2 1 1 2 1 1 2 1 1 2 1 1 2 1 1 2 1 1 2 
1 1 2 1 1 2 1 1 2 1 1 2 1 1 2 1 1 2 1 1 2 1 1 2 
1 1 2 1 1 2 1 1 2 1 1 2 1 1 2 1 1 2 1 1 2 1 1 2 

1 1 2 1 1 2 1 1 2 1 1 2 1 1 2 1 1 2 1 1 2 1 1 2 
1 1 2 1 1 2 1 1 2 1 1 2 1 1 2 1 1 2 1 1 2 1 1 2 
1 1 2 1 1 2 1 1 2 1 1 2 1 1 2 1 1 2 1 1 2 1 1 2 
1 1 2 1 1 2 1 1 2 14 14 17 39 39 40 86 86 87 14 14 17 1 1 2 
136 87 0 183 135 24 219 165 4 237 184 20 234 182 10 237 199 22 239 210 21 247 216 37 
247 216 37 247 216 37 244 216 21 239 210 21 239 210 21 234 182 10 108 87 41 22 7 1 
1 1 2 1 1 2 1 1 2 1 1 2 49 47 50 78 83 78 39 39 40 14 14 17 
1 1 2 1 1 2 1 1 2 1 1 2 1 1 2 1 1 2 1 1 2 1 1 2 
1 1 2 1 1 2 1 1 2 1 1 2 1 1 2 1 1 2 1 1 2 1 1 2 
1 1 2 1 1 2 1 1 2 1 1 2 1 1 2 1 1 2 1 1 2 1 1 2 

1 1 2 1 1 2 1 1 2 1 1 2 1 1 2 1 1 2 1 1 2 1 1 2 
1 1 2 1 1 2 1 1 2 1 1 2 1 1 2 1 1 2 1 1 2 1 1 2 
1 1 2 1 1 2 1 1 2 1 1 2 1 1 2 1 1 2 1 1 2 1 1 2 
1 1 2 1 1 2 1 1 2 14 14 17 39 39 40 86 86 87 22 22 23 45 49 46 
169 119 2 199 147 25 229 173 7 237 184 20 235 194 11 237 199 22 239 210 21 247 216 37 
247 216 37 247 216 37 244 216 21 244 216 21 234 182 10 208 174 2 150 131 89 22 7 1 
1 1 2 1 1 2 1 1 2 1 1 2 22 22 23 94 94 97 39 39 40 17 15 18 
1 1 2 1 1 2 1 1 2 1 1 2 1 1 2 1 1 2 1 1 2 1 1 2 
1 1 2 1 1 2 1 1 2 1 1 2 1 1 2 1 1 2 1 1 2 1 1 2 
1 1 2 1 1 2 1 1 2 1 1 2 1 1 2 1 1 2 1 1 2 1 1 2 

1 1 2 1 1 2 1 1 2 1 1 2 1 1 2 1 1 2 1 1 2 1 1 2 
1 1 2 1 1 2 1 1 2 1 1 2 1 1 2 1 1 2 1 1 2 1 1 2 
1 1 2 1 1 2 1 1 2 1 1 2 1 1 2 1 1 2 1 1 2 1 1 2 
1 1 2 1 1 2 1 1 2 14 14 17 22 22 23 82 78 75 52 47 40 69 67 58 
186 135 3 210 153 21 234 182 10 234 182 10 235 194 11 237 199 22 247 216 37 247 216 37 
247 216 37 247 216 37 243 203 50 201 149 7 201 149 7 211 154 4 139 120 69 22 7 1 
1 1 2 1 1 2 1 1 2 1 1 2 1 1 2 86 86 87 55 55 55 22 22 23 
1 1 2 1 1 2 1 1 2 1 1 2 1 1 2 1 1 2 1 1 2 1 1 2 
1 1 2 1 1 2 1 1 2 1 1 2 1 1 2 1 1 2 1 1 2 1 1 2 
1 1 2 1 1 2 1 1 2 1 1 2 1 1 2 1 1 2 1 1 2 1 1 2 

1 1 2 1 1 2 1 1 2 1 1 2 1 1 2 1 1 2 1 1 2 1 1 2 
1 1 2 1 1 2 1 1 2 1 1 2 1 1 2 1 1 2 1 1 2 1 1 2 
1 1 2 1 1 2 1 1 2 1 1 2 1 1 2 1 1 2 1 1 2 1 1 2 
1 1 2 1 1 2 1 1 2 14 14 17 22 22 23 82 78 75 38 36 28 20 19 11 
151 104 2 216 164 27 234 182 10 245 189 13 237 199 22 239 210 21 247 216 37 247 216 37 
239 210 21 208 174 2 186 135 3 201 149 7 210 153 21 201 149 7 92 72 27 22 7 1 
1 1 2 55 55 55 22 22 23 1 1 2 1 1 2 62 62 65 76 77 82 30 30 33 
14 14 17 1 1 2 1 1 2 1 1 2 1 1 2 1 1 2 1 1 2 1 1 2 
1 1 2 1 1 2 1 1 2 1 1 2 1 1 2 1 1 2 1 1 2 1 1 2 
1 1 2 1 1 2 1 1 2 1 1 2 1 1 2 1 1 2 1 1 2 1 1 2 

1 1 2 1 1 2 1 1 2 1 1 2 1 1 2 1 1 2 1 1 2 1 1 2 
1 1 2 1 1 2 1 1 2 1 1 2 1 1 2 1 1 2 1 1 2 1 1 2 
1 1 2 1 1 2 1 1 2 1 1 2 1 1 2 1 1 2 1 1 2 1 1 2 
1 1 2 1 1 2 1 1 2 14 14 17 39 39 40 76 77 82 49 47 50 1 1 2 
89 73 38 118 103 59 189 149 26 218 178 54 233 194 40 233 194 40 218 165 38 201 149 7 
179 121 0 195 138 4 202 154 42 202 154 42 172 151 109 182 164 120 104 104 103 1 1 2 
1 1 2 76 77 82 113 112 117 55 55 55 1 1 2 22 22 23 86 86 87 49 47 50 
17 15 18 1 1 2 1 1 2 1 1 2 1 1 2 1 1 2 1 1 2 1 1 2 
1 1 2 1 1 2 1 1 2 1 1 2 1 1 2 1 1 2 1 1 2 1 1 2 
1 1 2 1 1 2 1 1 2 1 1 2 1 1 2 1 1 2 1 1 2 1 1 2 

1 1 2 1 1 2 1 1 2 1 1 2 1 1 2 1 1 2 1 1 2 1 1 2 
1 1 2 1 1 2 1 1 2 1 1 2 1 1 2 1 1 2 1 1 2 1 1 2 
1 1 2 1 1 2 1 1 2 1 1 2 1 1 2 1 1 2 1 1 2 1 1 2 
1 1 2 1 1 2 1 1 2 14 14 17 39 39 40 86 86 87 49 47 50 1 1 2 
150 131 89 172 151 109 157 113 3 169 119 2 201 149 7 187 148 1 195 138 4 201 149 7 
199 141 23 199 141 23 189 149 26 218 165 38 214 196 150 214 196 150 176 174 173 17 15 18 
1 1 2 22 22 23 113 112 117 113 112 117 22 22 23 1 1 2 76 77 82 72 72 72 
22 22 23 14 14 17 1 1 2 1 1 2 1 1 2 1 1 2 1 1 2 1 1 2 
1 1 2 1 1 2 1 1 2 1 1 2 1 1 2 1 1 2 1 1 2 1 1 2 
1 1 2 1 1 2 1 1 2 1 1 2 1 1 2 1 1 2 1 1 2 1 1 2 

1 1 2 1 1 2 1 1 2 1 1 2 1 1 2 1 1 2 1 1 2 1 1 2 
1 1 2 1 1 2 1 1 2 1 1 2 1 1 2 1 1 2 1 1 2 1 1 2 
1 1 2 1 1 2 1 1 2 1 1 2 1 1 2 1 1 2 1 1 2 1 1 2 
1 1 2 1 1 2 1 1 2 20 19 11 49 47 50 104 104 103 30 30 33 14 14 17 
136 136 135 194 189 185 172 151 109 139 120 69 185 139 36 183 145 39 185 139 36 183 135 24 
153 119 56 173 145 79 180 177 172 194 189 185 199 199 200 216 216 216 216 216 216 72 72 72 
1 1 2 1 1 2 49 47 50 62 62 65 1 1 2 1 1 2 14 14 17 86 86 87 
49 47 50 17 15 18 1 1 2 1 1 2 1 1 2 1 1 2 1 1 2 1 1 2 
1 1 2 1 1 2 1 1 2 1 1 2 1 1 2 1 1 2 1 1 2 1 1 2 
1 1 2 1 1 2 1 1 2 1 1 2 1 1 2 1 1 2 1 1 2 1 1 2 

1 1 2 1 1 2 1 1 2 1 1 2 1 1 2 1 1 2 1 1 2 1 1 2 
1 1 2 1 1 2 1 1 2 1 1 2 1 1 2 1 1 2 1 1 2 1 1 2 
1 1 2 1 1 2 1 1 2 1 1 2 1 1 2 1 1 2 1 1 2 1 1 2 
1 1 2 1 1 2 1 1 2 39 39 40 72 72 72 72 72 72 1 1 2 1 1 2 
143 144 139 199 199 200 201 184 147 182 164 120 167 121 22 151 104 2 164 108 4 177 121 18 
173 145 79 209 183 111 194 189 185 214 210 204 243 244 234 252 252 252 252 252 252 186 187 186 
1 1 2 1 1 2 1 1 2 1 1 2 1 1 2 1 1 2 1 1 2 62 62 65 
72 72 72 39 39 40 14 14 17 1 1 2 1 1 2 1 1 2 1 1 2 1 1 2 
1 1 2 1 1 2 1 1 2 1 1 2 1 1 2 1 1 2 1 1 2 1 1 2 
1 1 2 1 1 2 1 1 2 1 1 2 1 1 2 1 1 2 1 1 2 1 1 2 

1 1 2 1 1 2 1 1 2 1 1 2 1 1 2 1 1 2 1 1 2 1 1 2 
1 1 2 1 1 2 1 1 2 1 1 2 1 1 2 1 1 2 1 1 2 1 1 2 
1 1 2 1 1 2 1 1 2 1 1 2 1 1 2 1 1 2 1 1 2 1 1 2 
1 1 2 14 14 17 22 22 23 55 55 55 86 86 87 22 22 23 1 1 2 45 44 50 
231 231 232 216 216 216 186 187 186 186 187 186 186 187 186 186 187 186 186 187 186 186 187 186 
174 195 206 199 199 200 216 216 216 243 244 234 252 252 252 252 252 252 252 252 252 252 252 252 
86 86 87 1 1 2 1 1 2 1 1 2 1 1 2 1 1 2 1 1 2 17 15 18 
86 86 87 55 55 55 22 22 23 1 1 2 1 1 2 1 1 2 1 1 2 1 1 2 
1 1 2 1 1 2 1 1 2 1 1 2 1 1 2 1 1 2 1 1 2 1 1 2 
1 1 2 1 1 2 1 1 2 1 1 2 1 1 2 1 1 2 1 1 2 1 1 2 

1 1 2 1 1 2 1 1 2 1 1 2 1 1 2 1 1 2 1 1 2 1 1 2 
1 1 2 1 1 2 1 1 2 1 1 2 1 1 2 1 1 2 1 1 2 1 1 2 
1 1 2 1 1 2 1 1 2 1 1 2 1 1 2 1 1 2 1 1 2 1 1 2 
1 1 2 17 15 18 45 49 46 86 86 87 45 49 46 17 15 18 1 1 2 186 187 186 
252 252 252 252 252 252 206 208 207 186 187 186 186 187 186 186 187 186 186 187 186 186 187 186 
206 208 207 231 231 232 252 252 252 252 252 252 252 252 252 252 252 252 252 252 252 252 252 252 
206 208 207 17 15 18 1 1 2 1 1 2 1 1 2 1 1 2 1 1 2 1 1 2 
45 44 50 86 86 87 39 39 40 17 15 18 1 1 2 1 1 2 1 1 2 1 1 2 
1 1 2 1 1 2 1 1 2 1 1 2 1 1 2 1 1 2 1 1 2 1 1 2 
1 1 2 1 1 2 1 1 2 1 1 2 1 1 2 1 1 2 1 1 2 1 1 2 

1 1 2 1 1 2 1 1 2 1 1 2 1 1 2 1 1 2 1 1 2 1 1 2 
1 1 2 1 1 2 1 1 2 1 1 2 1 1 2 1 1 2 1 1 2 1 1 2 
1 1 2 1 1 2 1 1 2 1 1 2 1 1 2 1 1 2 1 1 2 14 14 17 
14 14 17 39 39 40 72 72 72 72 72 72 1 1 2 1 1 2 86 86 87 252 252 252 
252 252 252 252 252 252 231 231 232 199 199 200 186 187 186 186 187 186 199 199 200 216 216 216 
243 244 234 252 252 252 252 252 252 252 252 252 252 252 252 252 252 252 252 252 252 252 252 252 
252 252 252 82 77 85 1 1 2 1 1 2 1 1 2 1 1 2 1 1 2 1 1 2 
1 1 2 76 77 82 72 72 72 39 39 40 14 14 17 1 1 2 1 1 2 1 1 2 
1 1 2 1 1 2 1 1 2 1 1 2 1 1 2 1 1 2 1 1 2 1 1 2 
1 1 2 1 1 2 1 1 2 1 1 2 1 1 2 1 1 2 1 1 2 1 1 2 

1 1 2 1 1 2 1 1 2 1 1 2 1 1 2 1 1 2 1 1 2 1 1 2 
1 1 2 1 1 2 1 1 2 1 1 2 1 1 2 1 1 2 1 1 2 1 1 2 
1 1 2 1 1 2 1 1 2 1 1 2 1 1 2 1 1 2 1 1 2 14 14 17 
39 39 40 72 72 72 82 78 75 1 1 2 1 1 2 17 15 18 216 216 216 252 252 252 
252 252 252 252 252 252 252 252 252 252 252 252 231 231 232 231 231 232 252 252 252 252 252 252 
252 252 252 252 252 252 252 252 252 252 252 252 252 252 252 252 252 252 252 252 252 252 252 252 
252 252 252 176 174 173 1 1 2 1 1 2 1 1 2 1 1 2 1 1 2 1 1 2 
1 1 2 22 22 23 86 86 87 62 62 65 22 22 23 14 14 17 1 1 2 1 1 2 
1 1 2 1 1 2 1 1 2 1 1 2 1 1 2 1 1 2 1 1 2 1 1 2 
1 1 2 1 1 2 1 1 2 1 1 2 1 1 2 1 1 2 1 1 2 1 1 2 

1 1 2 1 1 2 1 1 2 1 1 2 1 1 2 1 1 2 1 1 2 1 1 2 
1 1 2 1 1 2 1 1 2 1 1 2 1 1 2 1 1 2 1 1 2 1 1 2 
1 1 2 1 1 2 1 1 2 1 1 2 1 1 2 1 1 2 14 14 17 22 22 23 
55 55 55 86 86 87 17 15 18 1 1 2 1 1 2 111 111 113 252 252 252 252 252 252 
252 252 252 252 252 252 252 252 252 252 252 252 252 252 252 252 252 252 252 252 252 252 252 252 
252 252 252 252 252 252 252 252 252 252 252 252 252 252 252 252 252 252 252 252 252 252 252 252 
252 252 252 231 231 232 17 15 18 1 1 2 1 1 2 1 1 2 1 1 2 1 1 2 
1 1 2 1 1 2 22 22 23 94 94 97 55 55 55 22 22 23 14 14 17 1 1 2 
1 1 2 1 1 2 1 1 2 1 1 2 1 1 2 1 1 2 1 1 2 1 1 2 
1 1 2 1 1 2 1 1 2 1 1 2 1 1 2 1 1 2 1 1 2 1 1 2 

1 1 2 1 1 2 1 1 2 1 1 2 1 1 2 1 1 2 1 1 2 1 1 2 
1 1 2 1 1 2 1 1 2 1 1 2 1 1 2 1 1 2 1 1 2 1 1 2 
1 1 2 1 1 2 1 1 2 1 1 2 1 1 2 1 1 2 22 22 23 55 55 55 
86 86 87 22 22 23 1 1 2 1 1 2 14 14 17 199 199 200 252 252 252 252 252 252 
252 252 252 252 252 252 252 252 252 252 252 252 252 252 252 252 252 252 252 252 252 252 252 252 
252 252 252 252 252 252 252 252 252 252 252 252 252 252 252 252 252 252 252 252 252 252 252 252 
252 252 252 243 244 234 55 55 55 1 1 2 1 1 2 1 1 2 1 1 2 1 1 2 
1 1 2 1 1 2 1 1 2 39 39 40 86 86 87 49 47 50 22 22 23 14 14 17 
1 1 2 1 1 2 1 1 2 1 1 2 1 1 2 1 1 2 1 1 2 1 1 2 
1 1 2 1 1 2 1 1 2 1 1 2 1 1 2 1 1 2 1 1 2 1 1 2 

1 1 2 1 1 2 1 1 2 1 1 2 1 1 2 1 1 2 1 1 2 1 1 2 
1 1 2 1 1 2 1 1 2 1 1 2 1 1 2 1 1 2 1 1 2 1 1 2 
1 1 2 1 1 2 1 1 2 1 1 2 1 1 2 14 14 17 39 39 40 78 83 78 
39 39 40 1 1 2 1 1 2 1 1 2 39 39 40 199 199 200 252 252 252 252 252 252 
252 252 252 252 252 252 252 252 252 252 252 252 243 244 234 243 244 234 252 252 252 252 252 252 
252 252 252 243 244 234 231 231 232 231 231 232 216 216 216 206 208 207 186 187 186 176 174 173 
176 174 173 231 231 232 104 104 103 1 1 2 1 1 2 1 1 2 1 1 2 1 1 2 
1 1 2 1 1 2 1 1 2 1 1 2 39 39 40 82 77 85 39 39 40 14 14 17 
1 1 2 1 1 2 1 1 2 1 1 2 1 1 2 1 1 2 1 1 2 1 1 2 
1 1 2 1 1 2 1 1 2 1 1 2 1 1 2 1 1 2 1 1 2 1 1 2 

1 1 2 1 1 2 1 1 2 1 1 2 1 1 2 1 1 2 1 1 2 1 1 2 
1 1 2 1 1 2 1 1 2 1 1 2 1 1 2 1 1 2 45 49 46 17 15 18 
22 22 23 22 22 23 22 22 23 22 22 23 22 22 23 22 22 23 22 22 23 22 22 23 
22 22 23 17 15 18 14 14 17 14 14 17 1 1 2 1 1 2 1 1 2 1 1 2 
1 1 2 1 1 2 1 1 2 1 1 2 1 1 2 1 1 2 1 1 2 1 1 2 
1 1 2 1 1 2 1 1 2 1 1 2 1 1 2 1 1 2 1 1 2 1 1 2 
22 22 23 78 83 78 186 187 186 22 22 23 1 1 2 1 1 2 1 1 2 1 1 2 
1 1 2 1 1 2 1 1 2 1 1 2 1 1 2 62 62 65 72 72 72 22 22 23 
14 14 17 1 1 2 1 1 2 1 1 2 1 1 2 1 1 2 1 1 2 1 1 2 
1 1 2 1 1 2 1 1 2 1 1 2 1 1 2 1 1 2 1 1 2 1 1 2 

1 1 2 1 1 2 1 1 2 1 1 2 1 1 2 1 1 2 1 1 2 1 1 2 
1 1 2 1 1 2 1 1 2 1 1 2 1 1 2 104 104 103 86 86 87 1 1 2 
1 1 2 1 1 2 1 1 2 1 1 2 1 1 2 1 1 2 1 1 2 1 1 2 
1 1 2 1 1 2 1 1 2 14 14 17 14 17 11 14 14 17 14 14 17 14 14 17 
14 14 17 14 14 17 14 14 17 17 15 18 17 15 18 17 15 18 17 15 18 17 15 18 
17 15 18 17 15 18 17 15 18 17 15 18 17 15 18 22 22 23 1 1 2 1 1 2 
17 15 18 39 39 40 206 208 207 160 158 161 1 1 2 17 15 18 49 47 50 17 15 18 
1 1 2 1 1 2 1 1 2 1 1 2 1 1 2 1 1 2 82 77 85 45 44 50 
17 15 18 1 1 2 1 1 2 1 1 2 1 1 2 1 1 2 1 1 2 1 1 2 
1 1 2 1 1 2 1 1 2 1 1 2 1 1 2 1 1 2 1 1 2 1 1 2 

1 1 2 1 1 2 1 1 2 1 1 2 1 1 2 1 1 2 1 1 2 1 1 2 
1 1 2 1 1 2 1 1 2 1 1 2 1 1 2 104 104 103 104 104 103 1 1 2 
1 1 2 22 22 23 39 39 40 39 39 40 49 47 50 55 55 55 55 55 55 55 55 55 
55 55 55 72 72 72 72 72 72 72 72 72 82 78 75 86 86 87 86 86 87 86 86 87 
78 83 78 78 83 78 86 86 87 86 86 87 86 86 87 94 94 97 104 104 103 104 104 103 
104 104 103 111 111 113 113 112 117 119 119 119 104 104 103 113 112 117 39 39 40 1 1 2 
14 14 17 55 55 55 199 199 200 231 231 232 86 86 87 1 1 2 14 14 17 39 39 40 
30 30 33 1 1 2 1 1 2 1 1 2 1 1 2 1 1 2 62 62 65 72 72 72 
22 22 23 1 1 2 1 1 2 1 1 2 1 1 2 1 1 2 1 1 2 1 1 2 
1 1 2 1 1 2 1 1 2 1 1 2 1 1 2 1 1 2 1 1 2 1 1 2 

1 1 2 1 1 2 1 1 2 1 1 2 1 1 2 1 1 2 1 1 2 1 1 2 
1 1 2 1 1 2 1 1 2 1 1 2 1 1 2 104 104 103 86 86 87 1 1 2 
1 1 2 22 22 23 60 65 41 103 103 89 119 119 119 132 125 120 132 125 120 98 92 88 
104 104 103 82 78 75 82 78 75 72 72 72 78 83 78 78 83 78 78 83 78 82 78 75 
76 77 82 76 77 82 82 77 85 82 77 85 86 86 87 86 86 87 86 86 87 103 103 89 
104 104 103 104 104 103 114 109 104 113 112 110 104 104 103 86 86 87 55 55 55 1 1 2 
1 1 2 55 55 55 176 174 173 199 199 200 206 208 207 14 14 17 1 1 2 1 1 2 
30 30 33 22 22 23 1 1 2 1 1 2 1 1 2 1 1 2 22 22 23 86 86 87 
39 39 40 14 14 17 1 1 2 1 1 2 1 1 2 1 1 2 1 1 2 1 1 2 
1 1 2 1 1 2 1 1 2 1 1 2 1 1 2 1 1 2 1 1 2 1 1 2 

1 1 2 1 1 2 1 1 2 1 1 2 1 1 2 1 1 2 1 1 2 1 1 2 
1 1 2 1 1 2 1 1 2 1 1 2 1 1 2 86 86 87 86 86 87 1 1 2 
1 1 2 17 15 18 54 52 42 87 84 75 86 86 87 104 104 103 98 92 88 98 92 88 
72 72 72 72 72 72 72 72 72 72 72 72 72 72 72 72 72 72 72 72 72 72 72 72 
72 72 72 72 72 72 76 77 82 76 77 82 86 86 87 98 92 88 104 104 103 86 86 87 
119 119 119 136 136 135 119 119 119 114 109 104 86 86 87 72 72 72 104 104 103 1 1 2 
1 1 2 55 55 55 152 152 152 216 216 216 216 216 216 104 104 103 1 1 2 17 15 18 
22 22 23 39 39 40 14 14 17 1 1 2 1 1 2 1 1 2 1 1 2 82 78 75 
55 55 55 22 22 23 1 1 2 1 1 2 1 1 2 1 1 2 1 1 2 1 1 2 
1 1 2 1 1 2 1 1 2 1 1 2 1 1 2 1 1 2 1 1 2 1 1 2 

1 1 2 1 1 2 1 1 2 1 1 2 1 1 2 1 1 2 1 1 2 1 1 2 
1 1 2 1 1 2 1 1 2 1 1 2 1 1 2 86 86 87 78 83 78 1 1 2 
1 1 2 1 1 2 69 57 36 102 88 66 164 108 4 177 121 18 151 104 2 125 86 0 
59 67 68 104 104 103 176 174 173 231 231 232 124 134 133 59 67 68 113 112 110 93 98 100 
54 52 42 39 39 40 72 72 72 231 231 232 252 252 252 252 252 252 231 231 232 76 77 82 
227 225 218 231 231 232 186 187 186 145 145 150 87 84 75 98 92 88 98 92 88 1 1 2 
1 1 2 72 72 72 104 104 103 252 252 252 243 244 234 199 199 200 1 1 2 39 39 40 
55 55 55 22 22 23 39 39 40 1 1 2 1 1 2 1 1 2 1 1 2 45 44 50 
82 78 75 22 22 23 14 14 17 1 1 2 1 1 2 1 1 2 1 1 2 1 1 2 
1 1 2 1 1 2 1 1 2 1 1 2 1 1 2 1 1 2 1 1 2 1 1 2 

1 1 2 1 1 2 1 1 2 1 1 2 1 1 2 1 1 2 1 1 2 1 1 2 
1 1 2 1 1 2 1 1 2 1 1 2 1 1 2 82 78 75 82 78 75 14 14 17 
1 1 2 1 1 2 69 57 36 117 103 85 231 171 72 213 168 54 231 171 72 185 139 36 
59 67 68 111 111 113 145 145 150 108 117 120 186 187 186 55 55 55 78 83 78 123 133 115 
87 84 75 87 84 75 55 55 55 176 174 173 231 231 232 216 216 216 252 252 252 72 72 72 
231 231 232 206 208 207 231 231 232 169 169 169 82 78 75 104 104 103 148 139 131 1 1 2 
1 1 2 55 55 55 86 86 87 252 252 252 252 252 252 243 244 234 49 47 50 39 39 40 
45 44 50 17 15 18 39 39 40 17 15 18 1 1 2 1 1 2 1 1 2 1 1 2 
86 86 87 45 49 46 14 14 17 1 1 2 1 1 2 1 1 2 1 1 2 1 1 2 
1 1 2 1 1 2 1 1 2 1 1 2 1 1 2 1 1 2 1 1 2 1 1 2 

1 1 2 1 1 2 1 1 2 1 1 2 1 1 2 1 1 2 1 1 2 1 1 2 
1 1 2 1 1 2 1 1 2 1 1 2 1 1 2 72 72 72 86 86 87 39 39 40 
1 1 2 1 1 2 55 55 55 87 84 75 148 135 113 172 151 109 150 131 89 118 103 59 
55 55 55 136 136 135 113 112 117 45 44 50 160 155 149 55 55 55 55 43 21 83 71 54 
72 72 72 104 104 103 55 55 55 119 119 119 201 184 147 201 184 147 180 177 172 68 61 55 
169 169 169 119 119 119 54 89 108 174 195 206 72 72 72 86 86 87 148 135 113 22 7 1 
1 1 2 39 39 40 72 72 72 252 252 252 252 252 252 252 252 252 86 86 87 1 1 2 
1 1 2 1 1 2 14 14 17 39 39 40 1 1 2 1 1 2 1 1 2 1 1 2 
72 72 72 55 55 55 22 22 23 1 1 2 1 1 2 1 1 2 1 1 2 1 1 2 
1 1 2 1 1 2 1 1 2 1 1 2 1 1 2 1 1 2 1 1 2 1 1 2 

1 1 2 1 1 2 1 1 2 1 1 2 1 1 2 1 1 2 1 1 2 1 1 2 
1 1 2 1 1 2 1 1 2 1 1 2 1 1 2 49 47 50 86 86 87 72 72 72 
1 1 2 1 1 2 52 47 40 69 67 58 117 103 85 102 88 66 150 131 89 172 151 109 
55 55 55 104 104 103 169 169 169 14 14 17 132 125 120 55 55 55 69 57 36 148 135 113 
136 136 135 104 104 103 45 50 53 72 72 72 255 252 215 255 252 215 252 252 252 54 52 42 
136 136 135 206 208 207 54 89 108 191 226 245 68 61 55 86 86 87 117 103 85 49 31 17 
1 1 2 17 15 18 82 78 75 252 252 252 252 252 252 252 252 252 143 144 139 1 1 2 
1 1 2 1 1 2 1 1 2 45 44 50 1 1 2 1 1 2 1 1 2 1 1 2 
39 39 40 72 72 72 22 22 23 14 14 17 1 1 2 1 1 2 1 1 2 1 1 2 
1 1 2 1 1 2 1 1 2 1 1 2 1 1 2 1 1 2 1 1 2 1 1 2 

1 1 2 1 1 2 1 1 2 1 1 2 1 1 2 1 1 2 1 1 2 1 1 2 
1 1 2 1 1 2 1 1 2 1 1 2 1 1 2 33 29 28 111 111 113 104 104 103 
33 29 28 22 22 23 49 47 50 55 55 55 172 151 109 120 86 25 121 98 73 136 119 102 
72 72 72 55 55 55 192 191 196 39 39 40 169 169 169 72 72 72 54 52 42 87 84 75 
39 39 40 22 22 23 39 39 40 55 55 55 186 187 186 176 174 173 169 169 169 55 55 55 
55 55 55 148 135 113 45 44 50 86 86 87 55 55 55 39 39 40 38 36 28 22 22 23 
1 1 2 1 1 2 72 72 72 199 199 200 252 252 252 252 252 252 186 187 186 1 1 2 
1 1 2 1 1 2 1 1 2 45 44 50 1 1 2 1 1 2 1 1 2 1 1 2 
14 14 17 86 86 87 39 39 40 14 14 17 1 1 2 1 1 2 1 1 2 1 1 2 
1 1 2 1 1 2 1 1 2 1 1 2 1 1 2 1 1 2 1 1 2 1 1 2 

1 1 2 1 1 2 1 1 2 1 1 2 1 1 2 1 1 2 1 1 2 1 1 2 
1 1 2 1 1 2 1 1 2 1 1 2 1 1 2 22 22 23 119 119 119 119 119 119 
33 29 28 22 22 23 45 49 46 55 55 55 101 68 9 108 77 18 140 117 79 121 98 73 
68 61 55 52 47 40 45 44 50 14 14 17 39 39 40 39 39 40 52 47 40 33 29 28 
39 39 40 39 39 40 45 49 46 45 50 53 72 72 72 72 72 72 72 72 72 72 72 72 
45 49 46 72 72 72 82 77 85 82 77 85 49 47 50 49 47 50 55 55 55 55 55 55 
1 1 2 1 1 2 78 83 78 169 169 169 252 252 252 252 252 252 206 208 207 1 1 2 
1 1 2 1 1 2 1 1 2 39 39 40 1 1 2 1 1 2 1 1 2 1 1 2 
1 1 2 86 86 87 45 49 46 14 14 17 1 1 2 1 1 2 1 1 2 1 1 2 
1 1 2 1 1 2 1 1 2 1 1 2 1 1 2 1 1 2 1 1 2 1 1 2 

1 1 2 1 1 2 1 1 2 1 1 2 1 1 2 1 1 2 1 1 2 1 1 2 
1 1 2 1 1 2 1 1 2 1 1 2 1 1 2 1 1 2 136 136 135 136 136 135 
22 22 23 22 22 23 39 39 40 55 55 55 114 109 104 87 84 75 102 88 66 82 78 75 
72 72 72 55 55 55 72 72 72 86 86 87 72 72 72 45 49 46 45 44 50 55 55 55 
45 49 46 45 49 46 45 49 46 49 47 50 49 47 50 49 47 50 45 44 50 45 49 46 
39 39 40 39 39 40 39 39 40 39 39 40 45 49 46 45 49 46 45 44 50 33 28 35 
1 1 2 1 1 2 98 92 88 119 119 119 252 252 252 252 252 252 216 216 216 1 1 2 
1 1 2 1 1 2 14 14 17 30 30 33 1 1 2 1 1 2 1 1 2 1 1 2 
1 1 2 78 83 78 55 55 55 17 15 18 1 1 2 1 1 2 1 1 2 1 1 2 
1 1 2 1 1 2 1 1 2 1 1 2 1 1 2 1 1 2 1 1 2 1 1 2 

1 1 2 1 1 2 1 1 2 1 1 2 1 1 2 1 1 2 1 1 2 1 1 2 
1 1 2 1 1 2 1 1 2 1 1 2 1 1 2 1 1 2 119 119 119 86 86 87 
22 22 23 22 22 23 33 29 28 55 55 55 68 61 55 69 67 58 68 61 55 68 61 55 
62 62 65 55 55 55 49 47 50 45 49 46 49 47 50 45 49 46 49 47 50 45 44 50 
39 39 40 45 49 46 45 49 46 45 49 46 45 49 46 45 49 46 55 55 55 72 72 72 
39 39 40 49 47 50 62 62 65 72 72 72 38 36 28 39 39 40 45 44 50 76 77 82 
1 1 2 1 1 2 86 86 87 119 119 119 252 252 252 252 252 252 231 231 232 1 1 2 
1 1 2 1 1 2 14 14 17 39 39 40 1 1 2 1 1 2 1 1 2 1 1 2 
1 1 2 72 72 72 55 55 55 22 22 23 1 1 2 1 1 2 1 1 2 1 1 2 
1 1 2 1 1 2 1 1 2 1 1 2 1 1 2 1 1 2 1 1 2 1 1 2 

1 1 2 1 1 2 1 1 2 1 1 2 1 1 2 1 1 2 1 1 2 1 1 2 
1 1 2 1 1 2 1 1 2 1 1 2 1 1 2 1 1 2 143 144 139 119 119 119 
22 22 23 20 19 11 22 22 23 49 47 50 55 55 55 69 67 58 78 66 44 83 71 54 
72 72 72 55 55 55 72 72 72 86 86 87 117 103 85 136 119 102 45 50 53 76 77 82 
145 164 182 174 195 206 80 95 114 33 48 67 93 98 100 104 104 103 94 94 97 72 72 72 
39 39 40 86 86 87 113 112 117 65 58 69 17 15 18 39 39 40 110 79 78 110 79 78 
1 1 2 1 1 2 69 67 58 104 104 103 252 252 252 252 252 252 216 216 216 69 67 58 
86 86 87 119 119 119 111 111 113 86 86 87 72 72 72 55 55 55 14 14 17 1 1 2 
1 1 2 72 72 72 55 55 55 22 22 23 1 1 2 1 1 2 1 1 2 1 1 2 
1 1 2 1 1 2 1 1 2 1 1 2 1 1 2 1 1 2 1 1 2 1 1 2 

1 1 2 1 1 2 1 1 2 1 1 2 1 1 2 1 1 2 1 1 2 1 1 2 
1 1 2 1 1 2 1 1 2 1 1 2 1 1 2 1 1 2 119 119 119 104 104 103 
17 15 18 17 15 18 22 22 23 45 49 46 52 47 40 152 152 152 117 103 85 132 125 120 
152 152 152 55 55 55 86 86 87 152 152 152 180 177 172 148 139 131 45 50 53 75 82 90 
213 225 235 53 76 94 145 164 182 33 48 67 59 67 68 86 86 87 86 86 87 119 119 119 
39 39 40 111 111 113 155 144 161 82 77 85 55 55 55 39 39 40 110 79 78 87 51 55 
33 29 28 104 104 103 136 136 135 104 104 103 136 136 135 98 92 88 86 86 87 82 78 75 
55 55 55 113 112 117 145 145 150 94 94 97 22 22 23 55 55 55 136 136 135 152 152 152 
152 152 152 119 119 119 78 83 78 22 22 23 1 1 2 1 1 2 1 1 2 1 1 2 
1 1 2 1 1 2 1 1 2 1 1 2 1 1 2 1 1 2 1 1 2 1 1 2 

1 1 2 1 1 2 1 1 2 1 1 2 1 1 2 1 1 2 1 1 2 1 1 2 
1 1 2 1 1 2 1 1 2 1 1 2 1 1 2 1 1 2 104 104 103 86 86 87 
20 19 11 14 14 17 14 14 17 39 39 40 45 49 46 136 136 135 87 84 75 55 55 55 
76 77 82 55 55 55 72 72 72 143 144 139 170 167 156 170 167 156 55 55 55 72 72 72 
113 112 117 72 72 72 108 117 120 45 50 53 69 67 58 216 216 216 186 187 186 136 136 135 
45 44 50 72 72 72 155 144 161 135 124 140 55 55 55 62 62 65 55 55 55 39 39 40 
39 39 40 20 19 11 45 49 46 82 78 75 143 144 139 86 86 87 39 39 40 22 22 23 
113 112 117 186 187 186 145 145 150 49 47 50 1 1 2 1 1 2 1 1 2 86 86 87 
78 83 78 72 72 72 55 55 55 55 55 55 82 78 75 1 1 2 1 1 2 1 1 2 
1 1 2 1 1 2 1 1 2 1 1 2 1 1 2 1 1 2 1 1 2 1 1 2 

1 1 2 1 1 2 1 1 2 1 1 2 1 1 2 1 1 2 1 1 2 1 1 2 
1 1 2 1 1 2 1 1 2 1 1 2 1 1 2 1 1 2 104 104 103 86 86 87 
39 39 40 14 14 17 14 14 17 39 39 40 45 49 46 86 86 87 114 109 104 38 36 28 
113 112 117 72 72 72 55 55 55 69 67 58 69 67 58 152 152 152 82 77 85 72 72 72 
94 94 97 76 77 82 93 98 100 59 67 68 72 72 72 22 22 23 22 22 23 104 104 103 
62 62 65 65 58 69 86 86 87 123 112 128 72 72 72 72 72 72 111 111 113 119 119 119 
104 104 103 72 72 72 82 78 75 113 112 110 136 136 135 104 104 103 1 1 2 1 1 2 
1 1 2 14 14 17 119 119 119 49 47 50 86 86 87 119 119 119 72 72 72 39 39 40 
39 39 40 22 22 23 17 15 18 14 14 17 17 15 18 22 22 23 104 104 103 1 1 2 
1 1 2 1 1 2 1 1 2 1 1 2 1 1 2 1 1 2 1 1 2 1 1 2 

1 1 2 1 1 2 1 1 2 1 1 2 1 1 2 1 1 2 1 1 2 1 1 2 
1 1 2 1 1 2 1 1 2 1 1 2 1 1 2 1 1 2 78 83 78 86 86 87 
55 55 55 14 14 17 14 14 17 45 49 46 55 55 55 136 136 135 170 167 156 38 36 28 
143 144 139 82 78 75 86 86 87 143 144 139 22 22 23 103 103 89 86 86 87 82 78 75 
39 39 40 55 55 55 39 39 40 39 39 40 82 78 75 49 47 50 17 15 18 86 86 87 
86 86 87 72 72 72 39 39 40 39 39 40 55 55 55 55 55 55 72 72 72 55 55 55 
78 83 78 169 169 169 180 177 172 169 169 169 143 144 139 104 104 103 82 78 75 72 72 72 
86 86 87 114 109 104 72 72 72 39 39 40 180 177 172 136 136 135 86 86 87 72 72 72 
72 72 72 17 15 18 1 1 2 1 1 2 1 1 2 1 1 2 1 1 2 49 47 50 
86 86 87 1 1 2 1 1 2 1 1 2 1 1 2 1 1 2 1 1 2 1 1 2 

1 1 2 1 1 2 1 1 2 1 1 2 1 1 2 1 1 2 1 1 2 1 1 2 
1 1 2 1 1 2 1 1 2 1 1 2 14 14 17 14 14 17 45 49 46 86 86 87 
78 83 78 14 14 17 1 1 2 45 49 46 55 55 55 114 109 104 119 119 119 69 67 58 
113 112 110 82 78 75 82 78 75 72 72 72 38 36 28 119 119 119 86 86 87 78 83 78 
55 55 55 22 22 23 14 14 17 39 39 40 78 83 78 55 55 55 55 55 55 72 72 72 
78 83 78 72 72 72 93 98 100 104 104 103 69 67 58 55 55 55 72 72 72 76 77 82 
72 72 72 69 67 58 104 104 103 104 104 103 113 112 110 119 119 119 111 111 113 82 78 75 
86 86 87 82 78 75 49 47 50 22 22 23 22 22 23 55 55 55 72 72 72 72 72 72 
78 83 78 104 104 103 86 86 87 1 1 2 1 1 2 1 1 2 1 1 2 1 1 2 
17 15 18 143 144 139 1 1 2 1 1 2 1 1 2 1 1 2 1 1 2 1 1 2 

1 1 2 1 1 2 1 1 2 1 1 2 1 1 2 1 1 2 1 1 2 1 1 2 
1 1 2 1 1 2 17 15 18 22 22 23 22 22 23 39 39 40 31 33 32 86 86 87 
86 86 87 1 1 2 1 1 2 39 39 40 55 55 55 55 55 55 22 22 23 38 36 28 
39 39 40 72 72 72 82 78 75 82 78 75 86 86 87 86 86 87 82 78 75 86 86 87 
78 83 78 111 111 113 104 104 103 86 86 87 86 86 87 86 86 87 86 86 87 78 83 78 
78 83 78 82 78 75 82 78 75 72 72 72 72 72 72 22 22 23 22 22 23 39 39 40 
86 86 87 86 86 87 72 72 72 55 55 55 39 39 40 39 39 40 49 47 50 45 49 46 
55 55 55 49 47 50 30 30 33 22 22 23 17 15 18 45 49 46 123 133 115 120 116 84 
103 103 89 80 88 63 54 52 42 20 19 11 1 1 2 14 17 11 14 17 11 14 17 11 
1 1 2 39 39 40 1 1 2 1 1 2 1 1 2 1 1 2 1 1 2 1 1 2 

1 1 2 1 1 2 1 1 2 1 1 2 1 1 2 1 1 2 1 1 2 1 1 2 
1 1 2 17 15 18 39 39 40 55 55 55 78 83 78 86 86 87 22 22 23 86 86 87 
94 94 97 1 1 2 1 1 2 39 39 40 55 55 55 55 55 55 86 86 87 104 104 103 
86 86 87 72 72 72 82 78 75 78 83 78 78 83 78 86 86 87 86 86 87 86 86 87 
86 86 87 86 86 87 86 86 87 86 86 87 86 86 87 78 83 78 78 83 78 72 72 72 
55 55 55 45 44 50 39 39 40 22 22 23 17 15 18 14 14 17 22 22 23 39 39 40 
39 39 40 72 72 72 86 86 87 55 55 55 39 39 40 22 22 23 22 22 23 22 22 23 
22 22 23 22 22 23 17 15 18 22 22 23 22 22 23 14 14 17 69 67 58 27 32 18 
1 1 2 1 1 2 14 17 11 20 19 11 14 17 11 1 1 2 1 1 2 1 1 2 
1 1 2 1 1 2 1 1 2 1 1 2 1 1 2 1 1 2 1 1 2 1 1 2 

1 1 2 1 1 2 1 1 2 1 1 2 1 1 2 1 1 2 1 1 2 1 1 2 
14 14 17 39 39 40 101 68 9 154 118 41 173 145 79 90 57 0 1 1 2 78 83 78 
82 78 75 1 1 2 1 1 2 22 22 23 49 47 50 55 55 55 59 67 68 72 72 72 
72 72 72 72 72 72 76 77 82 76 77 82 69 67 58 55 55 55 45 44 50 39 39 40 
22 22 23 17 15 18 14 14 17 17 15 18 17 15 18 14 14 17 14 14 17 14 14 17 
14 14 17 14 14 17 17 15 18 14 14 17 17 15 18 22 22 23 14 14 17 22 22 23 
39 39 40 45 49 46 22 22 23 72 72 72 55 55 55 39 39 40 22 22 23 14 14 17 
17 15 18 14 17 11 14 17 11 1 1 2 17 15 18 14 17 11 14 14 17 22 22 23 
22 22 23 22 22 23 22 22 23 14 17 11 1 1 2 14 17 11 14 14 17 1 1 2 
14 14 17 1 1 2 1 1 2 1 1 2 1 1 2 1 1 2 1 1 2 1 1 2 

1 1 2 1 1 2 1 1 2 1 1 2 1 1 2 1 1 2 1 1 2 1 1 2 
22 22 23 55 55 55 154 118 41 173 145 79 208 175 84 37 10 0 1 1 2 86 86 87 
72 72 72 1 1 2 1 1 2 14 17 11 22 22 23 22 22 23 13 17 19 13 17 19 
17 15 18 17 15 18 17 15 18 17 15 18 1 1 2 1 1 2 1 1 2 1 1 2 
1 1 2 1 1 2 1 1 2 1 1 2 1 1 2 1 1 2 1 1 2 1 1 2 
1 1 2 14 14 17 22 22 23 22 22 23 17 15 18 17 15 18 1 1 2 22 22 23 
22 22 23 22 22 23 39 39 40 39 39 40 39 39 40 55 55 55 39 39 40 17 15 18 
14 14 17 14 17 11 1 1 2 1 1 2 1 1 2 22 22 23 22 22 23 22 22 23 
22 22 23 22 22 23 14 14 17 14 17 11 1 1 2 1 1 2 1 1 2 14 14 17 
1 1 2 14 14 17 1 1 2 1 1 2 1 1 2 1 1 2 1 1 2 1 1 2 

1 1 2 1 1 2 1 1 2 1 1 2 1 1 2 1 1 2 1 1 2 1 1 2 
22 22 23 72 72 72 186 135 3 218 165 38 208 175 84 22 7 1 1 1 2 55 55 55 
55 55 55 1 1 2 1 1 2 1 1 2 1 1 2 1 1 2 1 1 2 1 1 2 
1 1 2 1 1 2 1 1 2 1 1 2 1 1 2 1 1 2 1 1 2 1 1 2 
14 14 17 14 14 17 17 15 18 17 15 18 17 15 18 14 14 17 14 14 17 1 1 2 
1 1 2 1 1 2 1 1 2 1 1 2 17 15 18 22 22 23 1 1 2 1 1 2 
17 15 18 22 22 23 22 22 23 22 22 23 39 39 40 22 22 23 39 39 40 39 39 40 
22 22 23 17 15 18 14 14 17 1 1 2 1 1 2 22 22 23 71 55 6 82 54 13 
55 37 0 22 7 1 22 7 1 22 7 1 14 17 11 1 1 2 14 14 17 14 14 17 
14 14 17 1 1 2 1 1 2 1 1 2 1 1 2 1 1 2 1 1 2 1 1 2 

1 1 2 1 1 2 1 1 2 1 1 2 1 1 2 1 1 2 1 1 2 1 1 2 
22 22 23 82 78 75 195 138 4 218 165 38 208 175 84 53 29 0 1 1 2 55 55 55 
22 22 23 1 1 2 1 1 2 1 1 2 1 1 2 1 1 2 1 1 2 14 14 17 
22 22 23 22 22 23 17 15 18 17 15 18 1 1 2 1 1 2 1 1 2 1 1 2 
1 1 2 14 14 17 22 22 23 39 39 40 55 55 55 72 72 72 86 86 87 111 111 113 
123 133 115 152 152 152 176 174 173 169 169 169 169 169 169 152 152 152 82 78 75 1 1 2 
55 55 55 39 39 40 14 14 17 17 15 18 22 22 23 22 22 23 22 22 23 14 14 17 
22 22 23 22 22 23 17 15 18 14 14 17 14 17 11 22 22 23 92 72 27 92 72 27 
92 80 40 92 80 40 83 71 54 46 33 8 13 17 19 14 14 17 14 14 17 1 1 2 
1 1 2 1 1 2 1 1 2 1 1 2 1 1 2 1 1 2 1 1 2 1 1 2 

1 1 2 1 1 2 1 1 2 1 1 2 1 1 2 1 1 2 1 1 2 14 14 17 
33 28 35 82 78 75 183 135 24 213 168 54 219 176 37 157 113 3 40 22 3 22 7 1 
40 22 3 46 33 8 22 7 1 22 7 1 22 7 1 22 7 1 22 7 1 22 7 1 
40 22 3 55 37 0 71 55 6 55 37 0 1 1 2 1 1 2 1 1 2 1 1 2 
49 47 50 152 152 152 169 169 169 186 187 186 206 208 207 231 231 232 243 244 234 252 252 252 
252 252 252 243 244 234 231 231 232 186 187 186 176 174 173 152 152 152 119 119 119 86 86 87 
72 72 72 55 55 55 14 14 17 14 14 17 14 14 17 17 15 18 22 22 23 22 22 23 
22 22 23 14 14 17 14 14 17 14 14 17 22 7 1 22 7 1 151 104 2 169 119 2 
186 135 3 195 138 4 186 135 3 151 104 2 78 66 44 46 33 8 22 22 23 14 17 11 
1 1 2 1 1 2 1 1 2 1 1 2 1 1 2 1 1 2 1 1 2 1 1 2 

1 1 2 1 1 2 1 1 2 1 1 2 1 1 2 1 1 2 1 1 2 14 14 17 
33 28 35 76 77 82 183 135 24 202 154 42 219 176 37 201 149 7 139 120 69 118 91 40 
108 87 41 108 87 41 108 87 41 118 103 59 138 112 51 139 120 69 148 132 77 148 132 77 
173 145 79 173 145 79 166 146 60 166 146 60 38 36 28 1 1 2 1 1 2 1 1 2 
22 22 23 231 231 232 252 252 252 252 252 252 252 252 252 252 252 252 252 252 252 252 252 252 
252 252 252 252 252 252 231 231 232 206 208 207 186 187 186 176 174 173 152 152 152 136 136 135 
113 112 117 78 83 78 55 55 55 1 1 2 1 1 2 14 14 17 14 14 17 14 14 17 
17 15 18 14 14 17 14 14 17 14 14 17 22 7 1 102 88 66 189 149 26 206 166 38 
222 177 25 232 184 32 218 178 54 206 166 38 148 135 113 102 88 66 55 55 55 22 22 23 
14 14 17 1 1 2 1 1 2 1 1 2 1 1 2 1 1 2 1 1 2 1 1 2 

1 1 2 1 1 2 1 1 2 1 1 2 1 1 2 1 1 2 1 1 2 1 1 2 
22 22 23 72 72 72 175 134 28 202 154 42 229 173 7 229 173 7 219 165 4 219 165 4 
219 165 4 219 165 4 219 165 4 229 173 7 234 182 10 234 182 10 234 182 10 234 182 10 
234 182 10 245 189 13 245 189 13 235 194 11 183 145 39 40 22 3 1 1 2 1 1 2 
45 49 46 243 244 234 252 252 252 252 252 252 252 252 252 252 252 252 252 252 252 252 252 252 
252 252 252 252 252 252 243 244 234 231 231 232 216 216 216 206 208 207 186 187 186 169 169 169 
152 152 152 113 112 117 55 43 21 55 43 21 40 22 3 22 7 1 1 1 2 1 1 2 
1 1 2 1 1 2 22 7 1 22 7 1 125 86 0 189 149 26 234 182 10 244 188 19 
245 189 13 245 189 13 245 189 13 234 182 10 229 173 7 219 165 4 138 112 51 90 57 0 
22 22 23 14 14 17 1 1 2 1 1 2 1 1 2 1 1 2 1 1 2 1 1 2 

1 1 2 1 1 2 1 1 2 1 1 2 1 1 2 1 1 2 1 1 2 1 1 2 
22 22 23 72 72 72 175 134 28 202 154 42 234 182 10 244 188 19 237 184 20 237 184 20 
237 184 20 237 184 20 244 188 19 244 188 19 244 188 19 244 195 19 244 188 19 244 188 19 
244 188 19 245 189 13 244 192 13 244 192 13 208 175 84 125 86 0 39 39 40 104 104 103 
216 216 216 252 252 252 252 252 252 252 252 252 252 252 252 252 252 252 252 252 252 252 252 252 
252 252 252 252 252 252 252 252 252 252 252 252 243 244 234 231 231 232 216 216 216 199 199 200 
180 177 172 55 55 55 22 7 1 69 57 36 89 73 38 89 73 38 52 47 40 40 22 3 
20 19 11 22 22 23 70 57 24 118 103 59 183 135 24 218 178 54 237 184 20 244 188 19 
245 189 13 245 189 13 244 192 13 245 189 13 237 184 20 237 184 20 209 183 111 155 131 61 
45 49 46 22 22 23 1 1 2 1 1 2 1 1 2 1 1 2 1 1 2 1 1 2 

1 1 2 1 1 2 1 1 2 1 1 2 1 1 2 1 1 2 1 1 2 14 14 17 
39 39 40 82 78 75 183 135 24 202 154 42 234 182 10 244 188 19 245 189 13 244 192 13 
244 192 13 245 189 13 245 189 13 245 189 13 245 189 13 245 189 13 245 189 13 245 189 13 
245 189 13 245 189 13 245 189 13 245 189 13 237 199 22 208 174 2 191 178 136 255 252 215 
252 252 252 252 252 252 252 252 252 252 252 252 252 252 252 252 252 252 252 252 252 252 252 252 
252 252 252 252 252 252 252 252 252 252 252 252 252 252 252 252 252 252 243 244 234 206 208 207 
55 55 55 1 1 2 37 10 0 105 79 35 151 104 2 151 104 2 151 104 2 151 104 2 
151 104 2 157 113 3 186 135 3 201 149 7 229 173 7 234 182 10 245 189 13 245 189 13 
244 192 13 244 192 13 244 188 19 245 189 13 244 188 19 244 188 19 231 187 58 189 149 26 
55 55 55 22 22 23 14 14 17 1 1 2 1 1 2 1 1 2 1 1 2 1 1 2 

1 1 2 1 1 2 1 1 2 1 1 2 1 1 2 1 1 2 1 1 2 14 14 17 
39 39 40 86 86 87 183 135 24 202 154 42 234 182 10 244 188 19 244 192 13 245 189 13 
245 189 13 244 192 13 244 192 13 244 192 13 244 192 13 244 192 13 245 189 13 245 189 13 
245 189 13 245 189 13 245 189 13 245 189 13 237 199 22 235 194 11 172 151 109 227 214 172 
252 252 252 252 252 252 252 252 252 252 252 252 252 252 252 252 252 252 252 252 252 252 252 252 
252 252 252 252 252 252 252 252 252 252 252 252 252 252 252 252 252 252 169 169 169 22 22 23 
1 1 2 1 1 2 53 29 0 139 120 69 206 166 38 231 187 58 231 187 58 231 187 58 
231 187 58 231 187 58 240 190 39 240 190 39 245 189 13 244 188 19 245 189 13 245 189 13 
245 189 13 244 192 13 244 192 13 244 188 19 244 188 19 234 182 10 213 168 54 169 119 2 
45 49 46 17 15 18 1 1 2 1 1 2 1 1 2 1 1 2 1 1 2 1 1 2 

1 1 2 1 1 2 1 1 2 1 1 2 1 1 2 1 1 2 1 1 2 22 22 23 
55 43 21 117 103 85 195 138 4 231 172 23 245 189 13 245 189 13 245 189 13 245 189 13 
245 189 13 245 189 13 245 189 13 245 189 13 245 189 13 245 189 13 245 189 13 245 189 13 
245 189 13 245 189 13 245 189 13 245 189 13 245 189 13 234 182 10 202 154 42 157 113 3 
227 225 218 252 252 252 252 252 252 252 252 252 252 252 252 252 252 252 252 252 252 252 252 252 
252 252 252 252 252 252 252 252 252 252 252 252 199 199 200 72 72 72 1 1 2 1 1 2 
1 1 2 1 1 2 73 40 3 138 112 51 219 165 4 237 184 20 234 182 10 245 189 13 
245 189 13 245 189 13 245 189 13 245 189 13 245 189 13 245 189 13 245 189 13 245 189 13 
245 189 13 244 192 13 244 195 19 237 184 20 218 178 54 202 154 42 136 119 102 78 66 44 
22 22 23 14 14 17 1 1 2 1 1 2 1 1 2 1 1 2 1 1 2 1 1 2 

1 1 2 1 1 2 1 1 2 1 1 2 1 1 2 1 1 2 1 1 2 22 22 23 
69 57 36 136 119 102 201 149 7 231 172 23 245 189 13 245 189 13 245 189 13 245 189 13 
245 189 13 244 192 13 245 189 13 245 189 13 245 189 13 245 189 13 245 189 13 245 189 13 
245 189 13 245 189 13 245 189 13 245 189 13 245 189 13 234 182 10 202 154 42 157 113 3 
52 47 40 148 139 131 216 216 216 252 252 252 252 252 252 252 252 252 252 252 252 252 252 252 
243 244 234 206 208 207 145 145 150 72 72 72 1 1 2 1 1 2 1 1 2 1 1 2 
1 1 2 1 1 2 73 40 3 138 112 51 219 165 4 237 184 20 245 189 13 245 189 13 
245 189 13 245 189 13 245 189 13 245 189 13 245 189 13 245 189 13 245 189 13 245 189 13 
244 192 13 234 182 10 229 173 7 219 165 4 185 139 36 157 113 3 78 66 44 55 43 21 
17 15 18 1 1 2 1 1 2 1 1 2 1 1 2 1 1 2 1 1 2 1 1 2 

1 1 2 1 1 2 1 1 2 1 1 2 1 1 2 1 1 2 1 1 2 22 22 23 
82 54 13 140 117 79 201 149 7 216 164 27 234 182 10 237 184 20 237 184 20 237 184 20 
237 184 20 244 188 19 244 188 19 244 188 19 244 188 19 244 188 19 245 189 13 245 189 13 
244 192 13 244 192 13 244 188 19 244 188 19 244 188 19 234 182 10 210 153 21 179 121 0 
70 57 24 22 7 1 1 1 2 33 28 35 55 55 55 59 67 68 49 47 50 39 39 40 
17 15 18 1 1 2 1 1 2 1 1 2 1 1 2 1 1 2 1 1 2 1 1 2 
1 1 2 1 1 2 90 57 0 154 118 41 211 154 4 231 172 23 245 189 13 245 189 13 
244 192 13 244 192 13 245 189 13 245 189 13 244 188 19 244 188 19 237 184 20 237 184 20 
213 168 54 202 154 42 148 135 113 120 116 84 78 83 78 49 47 50 39 39 40 17 15 18 
1 1 2 1 1 2 1 1 2 1 1 2 1 1 2 1 1 2 1 1 2 1 1 2 

1 1 2 1 1 2 1 1 2 1 1 2 1 1 2 1 1 2 1 1 2 22 22 23 
71 55 6 140 117 79 195 138 4 201 149 7 219 165 4 219 165 4 219 165 4 229 173 7 
229 173 7 234 182 10 234 182 10 237 184 20 245 189 13 245 189 13 245 189 13 244 192 13 
244 192 13 244 192 13 244 192 13 244 192 13 245 189 13 229 173 7 210 153 21 169 119 2 
78 66 44 22 7 1 1 1 2 1 1 2 1 1 2 1 1 2 1 1 2 1 1 2 
1 1 2 1 1 2 1 1 2 1 1 2 1 1 2 1 1 2 1 1 2 1 1 2 
1 1 2 1 1 2 100 60 4 154 118 41 211 154 4 231 172 23 234 182 10 245 189 13 
245 189 13 245 189 13 245 189 13 245 189 13 244 188 19 229 173 7 229 173 7 211 154 4 
175 134 28 157 113 3 100 87 56 70 57 24 39 39 40 22 22 23 14 14 17 1 1 2 
1 1 2 1 1 2 1 1 2 1 1 2 1 1 2 1 1 2 1 1 2 1 1 2 

1 1 2 1 1 2 1 1 2 1 1 2 1 1 2 1 1 2 1 1 2 14 14 17 
39 39 40 72 72 72 120 116 84 140 117 79 153 119 56 153 119 56 183 135 24 185 139 36 
199 141 23 199 147 25 210 153 21 216 164 27 231 172 23 231 172 23 237 184 20 237 184 20 
244 188 19 244 188 19 244 188 19 244 188 19 232 184 32 219 165 4 183 135 24 151 104 2 
89 73 38 22 7 1 1 1 2 1 1 2 1 1 2 1 1 2 1 1 2 1 1 2 
1 1 2 1 1 2 1 1 2 1 1 2 1 1 2 1 1 2 1 1 2 1 1 2 
1 1 2 14 14 17 90 57 0 133 103 44 195 138 4 218 165 38 231 172 23 237 184 20 
244 188 19 244 188 19 237 184 20 231 172 23 218 165 38 199 147 25 173 145 79 139 120 69 
86 86 87 55 55 55 39 39 40 22 22 23 14 14 17 1 1 2 1 1 2 1 1 2 
1 1 2 1 1 2 1 1 2 1 1 2 1 1 2 1 1 2 1 1 2 1 1 2 

1 1 2 1 1 2 1 1 2 1 1 2 1 1 2 1 1 2 1 1 2 1 1 2 
17 15 18 39 39 40 70 57 24 92 80 40 133 103 44 138 112 51 157 113 3 157 113 3 
169 119 2 169 119 2 179 121 0 179 121 0 186 135 3 195 138 4 211 154 4 219 165 4 
229 173 7 234 182 10 234 182 10 229 173 7 219 165 4 195 138 4 164 108 4 136 87 0 
69 57 36 22 7 1 1 1 2 1 1 2 22 22 23 39 39 40 39 39 40 39 39 40 
39 39 40 39 39 40 39 39 40 39 39 40 39 39 40 39 39 40 22 22 23 1 1 2 
1 1 2 14 14 17 73 40 3 120 86 25 179 121 0 199 141 23 219 165 4 229 173 7 
234 182 10 229 173 7 219 165 4 211 154 4 186 135 3 164 108 4 138 112 51 105 79 35 
49 47 50 22 22 23 14 14 17 1 1 2 1 1 2 1 1 2 1 1 2 1 1 2 
1 1 2 1 1 2 1 1 2 1 1 2 1 1 2 1 1 2 1 1 2 1 1 2 

1 1 2 1 1 2 1 1 2 1 1 2 1 1 2 1 1 2 1 1 2 1 1 2 
1 1 2 17 15 18 22 22 23 39 39 40 45 49 46 55 55 55 72 72 72 86 86 87 
103 103 89 103 103 89 109 101 72 100 87 56 118 91 40 133 103 44 149 105 23 171 123 34 
183 135 24 185 139 36 199 141 23 199 141 23 171 123 34 149 105 23 120 86 25 101 68 9 
38 36 28 54 52 42 111 111 113 104 104 103 86 86 87 86 86 87 82 78 75 82 78 75 
82 78 75 82 78 75 82 78 75 82 78 75 82 78 75 78 83 78 86 86 87 86 86 87 
114 109 104 104 104 103 92 72 27 108 87 41 157 113 3 167 121 22 199 141 23 199 141 23 
199 147 25 199 141 23 185 139 36 167 121 22 109 101 72 117 103 85 72 72 72 39 39 40 
22 22 23 14 14 17 1 1 2 1 1 2 1 1 2 1 1 2 1 1 2 1 1 2 
1 1 2 1 1 2 1 1 2 1 1 2 1 1 2 1 1 2 1 1 2 1 1 2 

1 1 2 1 1 2 1 1 2 1 1 2 1 1 2 1 1 2 1 1 2 1 1 2 
1 1 2 1 1 2 1 1 2 14 14 17 17 15 18 22 22 23 22 22 23 39 39 40 
54 52 42 68 61 55 89 73 38 102 88 66 118 91 40 133 103 44 136 87 0 125 86 0 
136 87 0 151 104 2 151 104 2 151 104 2 136 87 0 136 87 0 101 68 9 100 60 4 
103 103 89 87 84 75 55 55 55 45 49 46 39 39 40 39 39 40 39 39 40 39 39 40 
39 39 40 39 39 40 39 39 40 39 39 40 39 39 40 39 39 40 39 39 40 39 39 40 
49 47 50 82 77 85 108 87 41 82 54 13 136 87 0 151 104 2 169 119 2 179 121 0 
169 119 2 169 119 2 151 104 2 136 87 0 109 101 72 69 57 36 39 39 40 22 22 23 
14 14 17 1 1 2 1 1 2 1 1 2 1 1 2 1 1 2 1 1 2 1 1 2 
1 1 2 1 1 2 1 1 2 1 1 2 1 1 2 1 1 2 1 1 2 1 1 2 

1 1 2 1 1 2 1 1 2 1 1 2 1 1 2 1 1 2 1 1 2 1 1 2 
1 1 2 1 1 2 1 1 2 1 1 2 1 1 2 1 1 2 1 1 2 14 14 17 
22 22 23 22 22 23 33 29 28 39 39 40 55 55 55 72 72 72 86 86 87 104 104 103 
102 88 66 83 71 54 89 73 38 92 72 27 89 73 38 70 57 24 68 61 55 98 92 88 
55 55 55 39 39 40 22 22 23 14 17 11 14 14 17 14 14 17 1 1 2 1 1 2 
14 14 17 14 14 17 14 14 17 14 14 17 14 14 17 14 14 17 14 14 17 14 14 17 
22 22 23 39 39 40 72 72 72 87 84 75 70 57 24 89 73 38 108 87 41 118 91 40 
118 91 40 105 79 35 87 84 75 87 84 75 55 55 55 39 39 40 17 15 18 1 1 2 
1 1 2 1 1 2 1 1 2 1 1 2 1 1 2 1 1 2 1 1 2 1 1 2 
1 1 2 1 1 2 1 1 2 1 1 2 1 1 2 1 1 2 1 1 2 1 1 2 

1 1 2 1 1 2 1 1 2 1 1 2 1 1 2 1 1 2 1 1 2 1 1 2 
1 1 2 1 1 2 1 1 2 1 1 2 1 1 2 1 1 2 1 1 2 1 1 2 
1 1 2 1 1 2 14 14 17 14 14 17 17 15 18 22 22 23 39 39 40 55 55 55 
78 66 44 100 87 56 108 87 41 105 79 35 99 78 49 100 87 56 83 71 54 54 52 42 
22 22 23 14 14 17 1 1 2 1 1 2 1 1 2 1 1 2 1 1 2 1 1 2 
1 1 2 1 1 2 1 1 2 1 1 2 1 1 2 1 1 2 1 1 2 1 1 2 
1 1 2 17 15 18 38 36 28 55 55 55 99 78 49 99 78 49 105 79 35 105 79 35 
105 79 35 108 87 41 72 72 72 52 47 40 22 22 23 14 14 17 1 1 2 1 1 2 
1 1 2 1 1 2 1 1 2 1 1 2 1 1 2 1 1 2 1 1 2 1 1 2 
1 1 2 1 1 2 1 1 2 1 1 2 1 1 2 1 1 2 1 1 2 1 1 2 

1 1 2 1 1 2 1 1 2 1 1 2 1 1 2 1 1 2 1 1 2 1 1 2 
1 1 2 1 1 2 1 1 2 1 1 2 1 1 2 1 1 2 1 1 2 1 1 2 
1 1 2 1 1 2 1 1 2 1 1 2 1 1 2 14 14 17 17 15 18 22 22 23 
22 22 23 39 39 40 45 49 46 55 55 55 49 47 50 45 44 50 22 22 23 22 22 23 
1 1 2 1 1 2 1 1 2 1 1 2 1 1 2 1 1 2 1 1 2 1 1 2 
1 1 2 1 1 2 1 1 2 1 1 2 1 1 2 1 1 2 1 1 2 1 1 2 
1 1 2 1 1 2 14 14 17 22 22 23 39 39 40 55 55 55 55 55 55 55 55 55 
55 55 55 45 44 50 22 22 23 17 15 18 14 14 17 1 1 2 1 1 2 1 1 2 
1 1 2 1 1 2 1 1 2 1 1 2 1 1 2 1 1 2 1 1 2 1 1 2 
1 1 2 1 1 2 1 1 2 1 1 2 1 1 2 1 1 2 1 1 2 1 1 2 

1 1 2 1 1 2 1 1 2 1 1 2 1 1 2 1 1 2 1 1 2 1 1 2 
1 1 2 1 1 2 1 1 2 1 1 2 1 1 2 1 1 2 1 1 2 1 1 2 
1 1 2 1 1 2 1 1 2 1 1 2 1 1 2 1 1 2 1 1 2 1 1 2 
1 1 2 1 1 2 14 14 17 22 22 23 22 22 23 17 15 18 14 14 17 1 1 2 
1 1 2 1 1 2 1 1 2 1 1 2 1 1 2 1 1 2 1 1 2 1 1 2 
1 1 2 1 1 2 1 1 2 1 1 2 1 1 2 1 1 2 1 1 2 1 1 2 
1 1 2 1 1 2 1 1 2 1 1 2 14 14 17 17 15 18 22 22 23 22 22 23 
17 15 18 17 15 18 14 14 17 1 1 2 1 1 2 1 1 2 1 1 2 1 1 2 
1 1 2 1 1 2 1 1 2 1 1 2 1 1 2 1 1 2 1 1 2 1 1 2 
1 1 2 1 1 2 1 1 2 1 1 2 1 1 2 1 1 2 1 1 2 1 1 2 

